X:3
T:Inversion
M:3/2
L:1/2
Q:1/2=100
K:Bb
%%MIDI gchord f2z2c2z2c2z2
%%MIDI program 1 41 % Viola
[K:bass]
B,,|"Eb"B,,2E,|"Gm"(D,/>C,/B,,)D,|"Eb"(E,B,,)E,|"Eb"B,2
w: |IV        |vi                |IV           |IV
[K:treble]
B|"Eb"(G/>F/G)A|"Gm"(B/>A/G)F|"Eb"(E/>F/G)A|"Eb"B2B|"Eb"B2e|"Gm"(d/>c/B)d|"Eb"(eB)e|"Eb"B2
G|"Eb"E2E|"Gm"(G/>A/B)B|"Eb"(G/>F/E)E|"Eb"E2B|"Eb"(G/>F/E)E|"Gm"(DE)(3(B/A/G/)|"Eb"(AB)(3(c/B/A/)|"Eb"(G/>A/B)
G|"Eb"(Be)e|"Gm"(B/>A/G)B|"Eb"(cB)(3(A/B/c/)|"Eb"(B/>A/G)G|"Eb"(E/F/G/A/)(B/c/)|"Gm"(B/A/G/F/)(E/F/)|"Eb"(G/E/B/G/)(3(A/B/c/)|"Eb"B2

